!!!OTL: Mojiao Shange,leng le tai
!!!ARE: Asia, China, Shanxi Nanzheng
!! I, 87
!!!SCT: C1412
!!!YEM: Copyright 1995, estate of Helmut Schaffrath.
**kern
*ICvox
*Ivox
!! Mixed meters:  3/4; 2/4
*M2/4
*k[]
*C:
{8.ee
16dd
8cc
4.dd
=1
8ee
16dd
16ee
8dd
8cc
=2
8a
4.a}
=3
{2dd
=4
8ee
16dd
16ee
8dd
8cc
=5
8a
4.a}
=6
{4a
4dd
=7
8a
8g
4dd
=8
8b-
16a
16b-
8a
8g
=9
8f
4.f}
=10
{8a
8cc
8a
8a
=11
4dd
4a
=12
8b-
16a
16b-
8a
8g
=13
8f
4.f}
=14
{8.ee
16dd
8dd
8cc
=15
8cc
4.dd
=16
8ee
8cc
8dd
8cc
=17
8cc
4.a}
=18
{2dd
=19
8ee
8cc
8dd
8cc
=20
8a
4.a}
=21
{8a
4dd
8dd
=22
4a
4dd
=23
8a
8cc
8a
8g
=24
8f
4.f}
=25
{8a
8cc
8a
8a
=26
4dd
4a
=27
8a
8cc
8a
8g
=28
8f
4.f}
==
!!!AGN: Shange. Duige
!! Zhuandiao: a YU - F GONG - a YU - F GONG
!!!ONB: ESAC (Essen Associative Code) Database: HUANG
!!!AMT: irregular
!!!AIN: vox
!!!EED: Helmut Schaffrath
!!!EEV: 1.0
*-
